icons/document.svg

<svg xmlns="http://www.w3.org/2000/svg" id="svg7384" style="enable-background:new" width="22" height="22" version="1.1">
 <defs id="defs7386">
  <style id="current-color-scheme" type="text/css">
   .ColorScheme-Text { color:#d3dae3; } .ColorScheme-Highlight { color:#5294e2; } .ColorScheme-ButtonBackground { color:#d3dae3; }
  </style>
 </defs>
 <g id="document-encrypt" transform="translate(-346.99759,257.00336)">
  <rect id="rect4192" style="opacity:0;fill:#2b0000;fill-opacity:0.40392157;fill-rule:nonzero;stroke:none;stroke-width:1;stroke-linecap:round;stroke-linejoin:round;stroke-miterlimit:4;stroke-dasharray:none;stroke-dashoffset:0;stroke-opacity:1" width="22" height="22" x="347" y="-257"/>
  <path id="path5975" style="fill:currentColor;fill-opacity:1" class="ColorScheme-Text" d="m 357.99758,-254.00336 c -5.00262,-0.003 -4.99999,4.64286 -4.99999,4.64286 l 0,2.35714 -0.83333,0 c -0.64633,0 -1.16667,0.36686 -1.16667,1 l 0,6.85714 c 0,0.63315 0.52034,1.14286 1.16667,1.14286 l 11.66666,0 c 0.64633,0 1.16667,-0.50971 1.16667,-1.14286 l 0,-6.85714 c 0,-0.63314 -0.52963,-0.89079 -1.16667,-1 l -0.83333,0 0,-2.35714 c 0,0 0.003,-4.6395 -5.00001,-4.64286 z m 0,3 c 2.00262,-0.003 2.00001,1.57143 2.00001,1.57143 l 0,2.42857 -4,0 0,-2.42857 c 0,0 0.003,-1.56807 1.99999,-1.57143 z"/>
 </g>
 <g id="document-open-recent" transform="translate(-347.99759,257.00336)">
  <rect id="rect4212" style="opacity:0;fill:#2b0000;fill-opacity:0.40392157;fill-rule:nonzero;stroke:none;stroke-width:1;stroke-linecap:round;stroke-linejoin:round;stroke-miterlimit:4;stroke-dasharray:none;stroke-dashoffset:0;stroke-opacity:1" width="32" height="32" x="394" y="-267"/>
  <g id="layer12-8" style="display:inline" transform="matrix(2,0,0,2,-136.00281,-191.00335)">
   <path id="path6485" style="display:inline;opacity:1;fill:currentColor;fill-opacity:1;stroke:none;enable-background:new" class="ColorScheme-Text" d="m 62,-8 c -3.58291,-5e-7 -7.166721,1.3659394 -9.900391,4.0996094 -5.46734,5.467338 -5.46734,14.3334476 0,19.8007816 5.46732,5.467336 14.333442,5.46734 19.800782,0 5.46734,-5.467338 5.46734,-14.3334476 0,-19.8007816 C 69.166721,-6.6340586 65.58291,-7.9999995 62,-8 Z m -0.146484,4.0019531 a 10,10 0 0 1 7.216796,2.9277344 10,10 0 0 1 0,14.1406245 10,10 0 0 1 -14.140624,0 10,10 0 0 1 0,-14.1406245 10,10 0 0 1 6.923828,-2.9277344 z M 60,-2 60,-1.734375 60,0 l 0,6.828125 3.414062,3.414063 1.228516,1.230468 0.185547,0.183594 1.414063,-1.414062 1.414062,-1.414063 -0.1875,-0.1875 L 66.242188,7.4140625 64,5.171875 64,0 64,-1.734375 64,-2 60,-2 Z" transform="matrix(0.5,0,0,0.5,242.0002,-33.000005)"/>
  </g>
 </g>
 <g id="22-22-document-open-recent" transform="translate(-303.99759,233.00336)">
  <rect id="rect4214" style="opacity:0;fill:#2b0000;fill-opacity:0.40392157;fill-rule:nonzero;stroke:none;stroke-width:1;stroke-linecap:round;stroke-linejoin:round;stroke-miterlimit:4;stroke-dasharray:none;stroke-dashoffset:0;stroke-opacity:1" width="22" height="22" x="383" y="-233"/>
  <path id="path4216" style="opacity:1;fill:currentColor;fill-opacity:1;fill-rule:nonzero;stroke:none;stroke-width:1;stroke-linecap:round;stroke-linejoin:round;stroke-miterlimit:4;stroke-dasharray:none;stroke-dashoffset:0;stroke-opacity:1" class="ColorScheme-Text" d="m 393.99759,-231.00336 a 9,9 0 0 0 -9,9 9,9 0 0 0 9,9 9,9 0 0 0 9,-9 9,9 0 0 0 -9,-9 z m 0,3 a 6,6 0 0 1 6,6 6,6 0 0 1 -6,6 6,6 0 0 1 -6,-6 6,6 0 0 1 6,-6 z m -1,1 0,6 0.082,0 0,0.0117 3.45312,3.45313 1.41407,-1.41407 -2.94922,-2.95117 0,-5.09961 -2,0 z"/>
 </g>
 <g id="document-decrypt" transform="translate(-345.99759,257.00336)">
  <rect id="rect4194" style="opacity:0;fill:#2b0000;fill-opacity:0.40392157;fill-rule:nonzero;stroke:none;stroke-width:1;stroke-linecap:round;stroke-linejoin:round;stroke-miterlimit:4;stroke-dasharray:none;stroke-dashoffset:0;stroke-opacity:1" width="22" height="22" x="369" y="-257"/>
  <path id="path4189" style="fill:currentColor;fill-opacity:1" class="ColorScheme-Text" d="M 33,3 C 29.103336,2.99766 28.2581,5.7538008 28.068359,7 l 3.074219,0 C 31.339714,6.5508956 31.816143,6.0019919 33,6 35.00262,5.997 35,7.5722656 35,7.5722656 L 35,10 l -3,0 -1,0 -3,0 -0.833984,0 C 26.519686,10 26,10.36686 26,11 l 0,6.857422 C 26,18.490572 26.519686,19 27.166016,19 l 11.667968,0 C 39.480314,19 40,18.490572 40,17.857422 L 40,11 c 0,-0.63314 -0.528976,-0.89079 -1.166016,-1 L 38,10 38,7.6425781 C 38,7.6425781 38.003,3.00336 33,3 Z" transform="translate(346.99759,-257.00336)"/>
 </g>
 <g id="16-16-document-encrypt" transform="translate(-346.99759,257.00336)">
  <rect id="rect4258" style="opacity:0;fill:#ff7dff;fill-opacity:1;stroke:none;stroke-opacity:1" width="16" height="16" x="350" y="-286"/>
  <g id="layer9-4" style="display:inline" transform="translate(2.99739,-35.00336)">
   <path id="path5975-5" style="fill:currentColor;fill-opacity:1" class="ColorScheme-Text" d="m 355.0002,-250 c -2.216,0 -4,1.82162 -4,4.0625 l 0,1.9375 -1,0 c -0.554,0 -1,0.446 -1,1 l 0,6 c 0,0.554 0.446,1 1,1 l 10,0 c 0.554,0 1,-0.446 1,-1 l 0,-6 c 0,-0.554 -0.446,-1 -1,-1 l -1,0 0,-1.9375 c 0,-2.24 -1.784,-4.0625 -4,-4.0625 z m 0,2 c 1.108,0 2,0.892 2,2 l 0,2 -4,0 0,-2 c 0,-1.108 0.892,-2 2,-2 z"/>
  </g>
 </g>
 <g id="16-16-document-decrypt" transform="translate(-346.99759,257.00336)">
  <rect id="rect4260" style="opacity:0;fill:#ff7dff;fill-opacity:1;stroke:none;stroke-opacity:1" width="16" height="16" x="370" y="-286"/>
  <g id="layer9-9" style="display:inline" transform="translate(4.99739,-35.00336)">
   <path id="path6354" style="fill:currentColor;fill-opacity:1" class="ColorScheme-Text" d="m 373.0002,-251 c -2.19497,0 -3.96658,1.78839 -4,4 l 0,1 1,0 1,0 0,-1 c 0,-1.108 0.892,-2 2,-2 1.108,0 2,0.892 2,2 l 0,4 -2,0 -3,0 -1,0 -1,0 c -0.554,0 -1,0.446 -1,1 l 0,6 c 0,0.554 0.446,1 1,1 l 10,0 c 0.554,0 1,-0.446 1,-1 l 0,-6 c 0,-0.554 -0.446,-1 -1,-1 l -1,0 0,-3.9375 c 0,-2.24 -1.784,-4.0625 -4,-4.0625 z"/>
  </g>
 </g>
</svg>

<?xml version="1.0" encoding="UTF-8" standalone="no"?>
<!-- Created with Inkscape (http://www.inkscape.org/) -->

<svg
   xmlns:osb="http://www.openswatchbook.org/uri/2009/osb"
   xmlns:dc="http://purl.org/dc/elements/1.1/"
   xmlns:cc="http://creativecommons.org/ns#"
   xmlns:rdf="http://www.w3.org/1999/02/22-rdf-syntax-ns#"
   xmlns:svg="http://www.w3.org/2000/svg"
   xmlns="http://www.w3.org/2000/svg"
   xmlns:sodipodi="http://sodipodi.sourceforge.net/DTD/sodipodi-0.dtd"
   xmlns:inkscape="http://www.inkscape.org/namespaces/inkscape"
   sodipodi:docname="document.svgz"
   inkscape:export-filename="/home/sam/source-symbolic.png"
   inkscape:export-xdpi="270"
   inkscape:export-ydpi="270"
   height="22"
   id="svg7384"
   style="enable-background:new"
   version="1.1"
   inkscape:version="0.91 r13725"
   width="22">
  <sodipodi:namedview
     inkscape:bbox-nodes="true"
     inkscape:bbox-paths="true"
     bordercolor="#ebdbb2"
     borderlayer="false"
     borderopacity="1"
     inkscape:current-layer="layer9"
     inkscape:cx="-7.1132284"
     inkscape:cy="29.370655"
     gridtolerance="10"
     inkscape:guide-bbox="true"
     guidetolerance="10"
     id="namedview88"
     inkscape:object-nodes="true"
     inkscape:object-paths="true"
     objecttolerance="10"
     pagecolor="#ebdbb2"
     inkscape:pageopacity="1"
     inkscape:pageshadow="2"
     showborder="true"
     showgrid="false"
     showguides="false"
     inkscape:showpageshadow="false"
     inkscape:snap-bbox="true"
     inkscape:snap-bbox-edge-midpoints="false"
     inkscape:snap-bbox-midpoints="false"
     inkscape:snap-center="false"
     inkscape:snap-global="true"
     inkscape:snap-grids="true"
     inkscape:snap-intersection-paths="true"
     inkscape:snap-midpoints="true"
     inkscape:snap-nodes="true"
     inkscape:snap-object-midpoints="true"
     inkscape:snap-others="true"
     inkscape:snap-page="false"
     inkscape:snap-smooth-nodes="true"
     inkscape:snap-to-guides="true"
     inkscape:window-height="843"
     inkscape:window-maximized="1"
     inkscape:window-width="1543"
     inkscape:window-x="57"
     inkscape:window-y="33"
     inkscape:zoom="4.04">
    <inkscape:grid
       color="#ebdbb2"
       dotted="false"
       empcolor="#ebdbb2"
       empopacity="0.4627451"
       empspacing="4"
       enabled="true"
       id="grid4866"
       opacity="0.16470588"
       originx="-105.99739px"
       originy="-468.00336px"
       snapvisiblegridlinesonly="true"
       spacingx="0.25px"
       spacingy="0.25px"
       type="xygrid"
       visible="true" />
  </sodipodi:namedview>
  <metadata
     id="metadata90">
    <rdf:RDF>
      <cc:Work
         rdf:about="">
        <dc:format>image/svg+xml</dc:format>
        <dc:type
           rdf:resource="http://purl.org/dc/dcmitype/StillImage" />
        <dc:title>Paper Symbolic Icon Theme</dc:title>
      </cc:Work>
    </rdf:RDF>
  </metadata>
  <title
     id="title8473">Paper Symbolic Icon Theme</title>
  <defs
     id="defs7386">
    <linearGradient
       id="linearGradient5606"
       osb:paint="solid">
      <stop
         id="stop5608"
         offset="0"
         style="stop-color:#ebdbb2;stop-opacity:1;" />
    </linearGradient>
    <filter
       inkscape:collect="always"
       id="filter7554"
       style="color-interpolation-filters:sRGB">
      <feBlend
         inkscape:collect="always"
         id="feBlend7556"
         in2="BackgroundImage"
         mode="darken" />
    </filter>
  </defs>
  <g
     inkscape:groupmode="layer"
     id="layer9"
     inkscape:label="status"
     style="display:inline"
     transform="translate(-346.99759,257.00336)">
    <g
       id="document-encrypt"
       inkscape:label="#g4198">
      <rect
         y="-257.00336"
         x="346.99759"
         height="22"
         width="22"
         id="rect4192"
         style="opacity:0;fill:#ebdbb2;fill-opacity:0.40392157;fill-rule:nonzero;stroke:none;stroke-width:1;stroke-linecap:round;stroke-linejoin:round;stroke-miterlimit:4;stroke-dasharray:none;stroke-dashoffset:0;stroke-opacity:1" />
      <path
         style="color:#ebdbb2;display:inline;overflow:visible;visibility:visible;opacity:0.72;fill:#ebdbb2;fill-opacity:1;fill-rule:nonzero;stroke:none;stroke-width:1;marker:none;enable-background:accumulate"
         sodipodi:nodetypes="zccsssssssscczsccccs"
         id="path5975"
         d="m 357.99758,-254.00336 c -5.00262,-0.003 -4.99999,4.64286 -4.99999,4.64286 l 0,2.35714 -0.83333,0 c -0.64633,0 -1.16667,0.36686 -1.16667,1 l 0,6.85714 c 0,0.63315 0.52034,1.14286 1.16667,1.14286 l 11.66666,0 c 0.64633,0 1.16667,-0.50971 1.16667,-1.14286 l 0,-6.85714 c 0,-0.63314 -0.52963,-0.89079 -1.16667,-1 l -0.83333,0 0,-2.35714 c 0,0 0.003,-4.6395 -5.00001,-4.64286 z m 0,3 c 2.00262,-0.003 2.00001,1.57143 2.00001,1.57143 l 0,2.42857 -4,0 0,-2.42857 c 0,0 0.003,-1.56807 1.99999,-1.57143 z"
         inkscape:connector-curvature="0" />
    </g>
    <g
       id="layer1-9"
       inkscape:label="places"
       style="display:inline"
       transform="translate(365.49464,-730.1619)" />
    <g
       id="layer14-8"
       inkscape:label="mimetypes"
       style="display:inline"
       transform="translate(124.49444,-113.1619)" />
    <g
       id="layer15-9"
       inkscape:label="emblems"
       style="display:inline"
       transform="translate(124.49444,-113.1619)" />
    <g
       id="g71291-2"
       inkscape:label="emotes"
       style="display:inline"
       transform="translate(124.49444,-113.1619)" />
    <g
       id="layer2-0"
       inkscape:label="categories"
       style="display:inline"
       transform="translate(365.49464,-580.1619)" />
    <g
       id="g6058-1"
       inkscape:label="apps"
       style="display:inline"
       transform="translate(365.49464,-580.1619)" />
    <g
       id="layer12-7"
       inkscape:label="actions"
       style="display:inline"
       transform="translate(124.49444,-113.1619)" />
    <g
       id="document-open-recent"
       transform="translate(-0.99999911,0)"
       inkscape:label="#g4202">
      <rect
         y="-267.00336"
         x="393.99759"
         height="32"
         width="32"
         id="rect4212"
         style="opacity:0;fill:#ebdbb2;fill-opacity:0.40392157;fill-rule:nonzero;stroke:none;stroke-width:1;stroke-linecap:round;stroke-linejoin:round;stroke-miterlimit:4;stroke-dasharray:none;stroke-dashoffset:0;stroke-opacity:1" />
      <g
         transform="matrix(2,0,0,2,-136.00281,-191.00335)"
         style="display:inline"
         inkscape:label="actions"
         id="layer12-8">
        <path
           style="display:inline;opacity:0.72;fill:#ebdbb2;fill-opacity:1;stroke:none;enable-background:new"
           d="M 62 -8 C 58.41709 -8.0000005 54.833279 -6.6340606 52.099609 -3.9003906 C 46.632269 1.5669474 46.632269 10.433057 52.099609 15.900391 C 57.566929 21.367727 66.433051 21.367731 71.900391 15.900391 C 77.367731 10.433053 77.367731 1.5669434 71.900391 -3.9003906 C 69.166721 -6.6340586 65.58291 -7.9999995 62 -8 z M 61.853516 -3.9980469 A 10 10 0 0 1 69.070312 -1.0703125 A 10 10 0 0 1 69.070312 13.070312 A 10 10 0 0 1 54.929688 13.070312 A 10 10 0 0 1 54.929688 -1.0703125 A 10 10 0 0 1 61.853516 -3.9980469 z M 60 -2 L 60 -1.734375 L 60 0 L 60 6.828125 L 63.414062 10.242188 L 64.642578 11.472656 L 64.828125 11.65625 L 66.242188 10.242188 L 67.65625 8.828125 L 67.46875 8.640625 L 66.242188 7.4140625 L 64 5.171875 L 64 0 L 64 -1.734375 L 64 -2 L 60 -2 z "
           transform="matrix(0.5,0,0,0.5,242.0002,-33.000005)"
           id="path6485" />
      </g>
    </g>
    <g
       id="22-22-document-open-recent"
       transform="translate(43.000001,-24.000003)"
       inkscape:label="#g4208">
      <rect
         y="-233.00336"
         x="382.99759"
         height="22"
         width="22"
         id="rect4214"
         style="opacity:0;fill:#ebdbb2;fill-opacity:0.40392157;fill-rule:nonzero;stroke:none;stroke-width:1;stroke-linecap:round;stroke-linejoin:round;stroke-miterlimit:4;stroke-dasharray:none;stroke-dashoffset:0;stroke-opacity:1" />
      <path
         id="path4216"
         d="m 393.99759,-231.00336 a 9,9 0 0 0 -9,9 9,9 0 0 0 9,9 9,9 0 0 0 9,-9 9,9 0 0 0 -9,-9 z m 0,3 a 6,6 0 0 1 6,6 6,6 0 0 1 -6,6 6,6 0 0 1 -6,-6 6,6 0 0 1 6,-6 z m -1,1 0,6 0.082,0 0,0.0117 3.45312,3.45313 1.41407,-1.41407 -2.94922,-2.95117 0,-5.09961 -2,0 z"
         style="opacity:0.72;fill:#ebdbb2;fill-opacity:1;fill-rule:nonzero;stroke:none;stroke-width:1;stroke-linecap:round;stroke-linejoin:round;stroke-miterlimit:4;stroke-dasharray:none;stroke-dashoffset:0;stroke-opacity:1"
         inkscape:connector-curvature="0" />
    </g>
    <g
       id="document-decrypt"
       transform="translate(1.0000009,0)"
       inkscape:label="#g4194">
      <rect
         style="opacity:0;fill:#ebdbb2;fill-opacity:0.40392157;fill-rule:nonzero;stroke:none;stroke-width:1;stroke-linecap:round;stroke-linejoin:round;stroke-miterlimit:4;stroke-dasharray:none;stroke-dashoffset:0;stroke-opacity:1"
         id="rect4194"
         width="22"
         height="22"
         x="368.99759"
         y="-257.00336" />
      <path
         id="path4189"
         transform="translate(346.99759,-257.00336)"
         d="m 33,3 c -3.896664,-0.00234 -4.7419,2.7538008 -4.931641,4 l 3.074219,0 C 31.339714,6.5508956 31.816143,6.0019919 33,6 35.00262,5.997 35,7.5722656 35,7.5722656 L 35,10 l -3,0 -1,0 -3,0 -0.833984,0 C 26.519686,10 26,10.36686 26,11 l 0,6.857422 C 26,18.490572 26.519686,19 27.166016,19 l 11.667968,0 C 39.480314,19 40,18.490572 40,17.857422 L 40,11 c 0,-0.63314 -0.528976,-0.89079 -1.166016,-1 L 38,10 38,7.6425781 c 0,0 0.003,-4.6392181 -5,-4.6425781 z"
         style="color:#ebdbb2;display:inline;overflow:visible;visibility:visible;opacity:0.72;fill:#ebdbb2;fill-opacity:1;fill-rule:nonzero;stroke:none;stroke-width:1;marker:none;enable-background:accumulate"
         inkscape:connector-curvature="0" />
    </g>
    <g
       id="16-16-document-encrypt"
       inkscape:label="#g4262">
      <rect
         y="-286.00336"
         x="349.99759"
         height="16"
         width="16"
         id="rect4258"
         style="opacity:0;fill:#ebdbb2;fill-opacity:1;stroke:none;stroke-opacity:1" />
      <g
         transform="translate(2.99739,-35.00336)"
         style="display:inline"
         inkscape:label="status"
         id="layer9-4">
        <path
           style="color:#ebdbb2;display:inline;overflow:visible;visibility:visible;opacity:0.72;fill:#ebdbb2;fill-opacity:1;fill-rule:nonzero;stroke:none;stroke-width:1;marker:none;enable-background:accumulate"
           sodipodi:nodetypes="sscsssssssscssssccss"
           id="path5975-5"
           d="m 355.0002,-250 c -2.216,0 -4,1.82162 -4,4.0625 l 0,1.9375 -1,0 c -0.554,0 -1,0.446 -1,1 l 0,6 c 0,0.554 0.446,1 1,1 l 10,0 c 0.554,0 1,-0.446 1,-1 l 0,-6 c 0,-0.554 -0.446,-1 -1,-1 l -1,0 0,-1.9375 c 0,-2.24 -1.784,-4.0625 -4,-4.0625 z m 0,2 c 1.108,0 2,0.892 2,2 l 0,2 -4,0 0,-2 c 0,-1.108 0.892,-2 2,-2 z"
           inkscape:connector-curvature="0" />
      </g>
    </g>
    <g
       id="layer1-2"
       inkscape:label="places"
       style="display:inline"
       transform="translate(340.33892,-745.46794)" />
    <g
       id="layer14-3"
       inkscape:label="mimetypes"
       style="display:inline"
       transform="translate(99.33872,-128.46794)" />
    <g
       id="layer15-5"
       inkscape:label="emblems"
       style="display:inline"
       transform="translate(99.33872,-128.46794)" />
    <g
       id="g71291-4"
       inkscape:label="emotes"
       style="display:inline"
       transform="translate(99.33872,-128.46794)" />
    <g
       id="layer2-4"
       inkscape:label="categories"
       style="display:inline"
       transform="translate(340.33892,-595.46794)" />
    <g
       id="g6058-4"
       inkscape:label="apps"
       style="display:inline"
       transform="translate(340.33892,-595.46794)" />
    <g
       id="layer12-84"
       inkscape:label="actions"
       style="display:inline"
       transform="translate(99.33872,-128.46794)" />
    <g
       id="layer1-7"
       inkscape:label="places"
       style="display:inline"
       transform="translate(328.88787,-728.13739)" />
    <g
       id="layer14-0"
       inkscape:label="mimetypes"
       style="display:inline"
       transform="translate(87.88767,-111.13739)" />
    <g
       id="layer15-4"
       inkscape:label="emblems"
       style="display:inline"
       transform="translate(87.88767,-111.13739)" />
    <g
       id="g71291-23"
       inkscape:label="emotes"
       style="display:inline"
       transform="translate(87.88767,-111.13739)" />
    <g
       id="layer2-2"
       inkscape:label="categories"
       style="display:inline"
       transform="translate(328.88787,-578.13739)" />
    <g
       id="g6058-9"
       inkscape:label="apps"
       style="display:inline"
       transform="translate(328.88787,-578.13739)" />
    <g
       id="layer12-1"
       inkscape:label="actions"
       style="display:inline"
       transform="translate(87.88767,-111.13739)" />
    <g
       id="16-16-document-decrypt"
       inkscape:label="#g4267">
      <rect
         style="opacity:0;fill:#ebdbb2;fill-opacity:1;stroke:none;stroke-opacity:1"
         id="rect4260"
         width="16"
         height="16"
         x="369.99759"
         y="-286.00336" />
      <g
         transform="translate(4.99739,-35.00336)"
         style="display:inline"
         inkscape:label="status"
         id="layer9-9">
        <path
           style="color:#ebdbb2;display:inline;overflow:visible;visibility:visible;opacity:0.72;fill:#ebdbb2;fill-opacity:1;fill-rule:nonzero;stroke:none;stroke-width:1;marker:none;enable-background:accumulate"
           sodipodi:nodetypes="sccccsssccccsssssssscss"
           id="path6354"
           d="m 373.0002,-251 c -2.19497,0 -3.96658,1.78839 -4,4 l 0,1 1,0 1,0 0,-1 c 0,-1.108 0.892,-2 2,-2 1.108,0 2,0.892 2,2 l 0,4 -2,0 -3,0 -1,0 -1,0 c -0.554,0 -1,0.446 -1,1 l 0,6 c 0,0.554 0.446,1 1,1 l 10,0 c 0.554,0 1,-0.446 1,-1 l 0,-6 c 0,-0.554 -0.446,-1 -1,-1 l -1,0 0,-3.9375 c 0,-2.24 -1.784,-4.0625 -4,-4.0625 z"
           inkscape:connector-curvature="0" />
      </g>
    </g>
  </g>
  <g
     inkscape:groupmode="layer"
     id="layer10"
     inkscape:label="devices"
     style="display:inline;filter:url(#filter7554)"
     transform="translate(-346.99759,257.00336)" />
  <g
     inkscape:groupmode="layer"
     id="layer1"
     inkscape:label="places"
     style="display:inline"
     transform="translate(-105.99739,-359.99664)" />
  <g
     inkscape:groupmode="layer"
     id="layer14"
     inkscape:label="mimetypes"
     style="display:inline"
     transform="translate(-346.99759,257.00336)" />
  <g
     inkscape:groupmode="layer"
     id="layer15"
     inkscape:label="emblems"
     style="display:inline"
     transform="translate(-346.99759,257.00336)" />
  <g
     inkscape:groupmode="layer"
     id="g71291"
     inkscape:label="emotes"
     style="display:inline"
     transform="translate(-346.99759,257.00336)" />
  <g
     inkscape:groupmode="layer"
     id="layer2"
     inkscape:label="categories"
     style="display:inline"
     transform="translate(-105.99739,-209.99664)" />
  <g
     inkscape:groupmode="layer"
     id="g6058"
     inkscape:label="apps"
     style="display:inline"
     transform="translate(-105.99739,-209.99664)" />
  <g
     inkscape:groupmode="layer"
     id="layer12"
     inkscape:label="actions"
     style="display:inline"
     transform="translate(-346.99759,257.00336)" />
</svg>
